X:3
T:The Mountain Road
C:Michael Gorman / Key of D
L:1/8
M:4/4
Q:350
K:D
F2AF BFAF|F2AF EFDE|F2AF BFAF|GEFD EDB,D|
F2AF BFAF|F2AF EFDE|FA (3AAA BAFB|ABde fedc|
|dc dB ADFA|dc de fgfe|dc dB ADFA|GE (3FED EDB,D|
dc dB ADFA|dc de fgfe|dcdB ADFA|GE (3FED EDB,D|
